X:1
T: Hero Of the Day
C: Metallica
Z: arae69
M: 4/4
L: 1/8
Q:1/4=120
K:A
V:1
F,A, F,A, EA2B,|EA2C EA2D|EA2E GB G2|EB G2 EB G2|
F,A, F,A, EA2B,|EA2C EA2D|EA2B GE B2|GE B2 GE BB/2B/2|
GG AA, EA2B,|EA2C EA2D|EA2E GB G2|EB G2 EB G2|
F,A, F,A, EA2B,|EA2C EA2D|EA2B GE B2|GE B2
Metallica - Wasting my hate 9/10 ! \0/
